X: 1
T: The Blackhaired Lass
R: slip jig
M: 9/8
L: 1/8
K: Dmaj
FAA FAd AFD|FAA FAd BBA|FAA FAd AFD|EDB, DFA BBA:|
f3 fed edB|Aff fef g2e|f3 fed edB|AFE DFA B2A:|


Tune 407	Setting 21153

